static/images/pieces/shogi/cz/1TO.svg

<svg height="31.358999mm" viewBox="0 0 27.116999 31.358999" width="27.116999mm" xmlns="http://www.w3.org/2000/svg" xmlns:xlink="http://www.w3.org/1999/xlink"><linearGradient id="a" gradientTransform="matrix(-1 0 0 -1 -80.275026 75.470796)" gradientUnits="userSpaceOnUse" x1="-37.075783" x2="-37.075783" y1="68.52066" y2="132.58603"><stop offset="0" stop-color="#ffdba6"/><stop offset="1" stop-color="#f2c478"/></linearGradient><clipPath id="b"><path d="m0 2834.646h2834.646v-2834.646h-2834.646z" transform="translate(-101.8765 -1470.7517)"/></clipPath><g clip-path="url(#b)" stroke-miterlimit="10" transform="matrix(-.35277776 0 0 .35277776 7.620363 24.528717)"><path d="m0 0-16.217 5.989c-.397.146-.844.146-1.241 0l-16.216-5.989c-.531-.196-.903-.628-.975-1.131l-7.687-53.534c-.122-.848.627-1.599 1.595-1.599h23.904 23.903c.969 0 1.717.751 1.596 1.599l-7.687 53.534c-.073.503-.444.935-.975 1.131" fill="url(#a)"/><path d="m-40.740234-57.115234c-1.407158 0-2.637958 1.167583-2.4375 2.570312l7.6875 53.5351564c.12054.84210769.730714 1.51475552 1.521484 1.8066406l16.216797 5.9902344c.591076.2173731 1.237049.2173731 1.828125 0l16.21874988-5.9902344c.79109572-.29200518 1.39960602-.96684898 1.52148432-1.8066406l7.6875001-53.5351564c.2001477-1.402689-1.0291161-2.570312-2.4375001-2.570312h-23.9042972zm0 1.701172h23.902343 23.9042972c.5296141 0 .7957583.335596.7539063.628906l-7.6875 53.5312498c-.0241215.1662073-.15683111.35703678-.42773438.4570312l-16.21679712 5.9882812c-.202585.07396-.450026.074404-.652343 0l-16.214844-5.9882812c-.271229-.10011453-.404275-.2911868-.427735-.4550781l-7.6875-53.5332029c-.04206-.292363.225746-.628907.753907-.628906z" fill="#4d3608"/></g><g fill="#f00"><path d="m13.974154 20.606244q-.557607.198438-2.656832.859898l-.295203-.826824q2.52563-.595314 3.017636-.826825 1.213615-.463022 1.64002-.926044.328004-.330729.328004-.727605 0-.463021-.426405-.694532-.557607-.297657-2.263228-.297657-.885611 0-1.180815.03308-.524806 0-1.213614.132291l-.0328-.826824q1.771221-.09922 2.197626-.09922 1.57442 0 2.42723.297657.721609.264583.951212.628385.295203.396876.295203.793752 0 .595313-.459205 1.157554-.459206.562241-1.672821 1.091409.0656.297656.164002 1.058335.0656.463021.0656 1.157554 0 .562241-.0328.959116l-.885611.03307q.0984-1.190627.0984-1.984379 0-.132292-.0656-.992189z" stroke-width=".35424"/><path d="m13.785426 6.6802166v8.0002004h-.450619v-8.0002004z" stroke-miterlimit="10" stroke-width=".352778"/><path d="m17.560312 10.454904v.450619h-8.0002006v-.450619z" stroke-miterlimit="10" stroke-width=".352778"/><path d="m13.71928 10.52105 2.828423 2.828423-.318327.318327-2.828423-2.828423z" stroke-miterlimit="10" stroke-width=".352778"/><path d="m13.400946 10.521076.318327.318327-2.828423 2.828423-.318327-.318327z" stroke-miterlimit="10" stroke-width=".352778"/></g></svg>

<?xml version="1.0" encoding="UTF-8" standalone="no"?>
<!-- Created with Inkscape (http://www.inkscape.org/) -->

<svg
   width="27.116999mm"
   height="31.358999mm"
   viewBox="0 0 27.116999 31.358999"
   version="1.1"
   id="svg1"
   inkscape:version="1.3.1 (91b66b0783, 2023-11-16)"
   sodipodi:docname="Template.svg"
   inkscape:export-filename="My Sets\FCZ Shogi\0TO.svg"
   inkscape:export-xdpi="96"
   inkscape:export-ydpi="96"
   xmlns:inkscape="http://www.inkscape.org/namespaces/inkscape"
   xmlns:sodipodi="http://sodipodi.sourceforge.net/DTD/sodipodi-0.dtd"
   xmlns:xlink="http://www.w3.org/1999/xlink"
   xmlns="http://www.w3.org/2000/svg"
   xmlns:svg="http://www.w3.org/2000/svg">
  <sodipodi:namedview
     id="namedview1"
     pagecolor="#ffffff"
     bordercolor="#999999"
     borderopacity="1"
     inkscape:showpageshadow="2"
     inkscape:pageopacity="0"
     inkscape:pagecheckerboard="0"
     inkscape:deskcolor="#d1d1d1"
     inkscape:document-units="mm"
     inkscape:zoom="2.0737236"
     inkscape:cx="31.103471"
     inkscape:cy="78.361457"
     inkscape:window-width="1920"
     inkscape:window-height="1009"
     inkscape:window-x="-8"
     inkscape:window-y="-8"
     inkscape:window-maximized="1"
     inkscape:current-layer="layer1" />
  <defs
     id="defs1">
    <linearGradient
       inkscape:collect="always"
       xlink:href="#linearGradient22"
       id="linearGradient2"
       x1="-37.075783"
       y1="68.52066"
       x2="-37.075783"
       y2="132.58603"
       gradientUnits="userSpaceOnUse"
       gradientTransform="rotate(180,-40.137513,37.735398)" />
    <linearGradient
       id="linearGradient22"
       inkscape:collect="always">
      <stop
         style="stop-color:#ffdba6;stop-opacity:1;"
         offset="0"
         id="stop21" />
      <stop
         style="stop-color:#f2c478;stop-opacity:1;"
         offset="1"
         id="stop22" />
    </linearGradient>
    <clipPath
       clipPathUnits="userSpaceOnUse"
       id="clipPath1350">
      <path
         d="M 0,2834.646 H 2834.646 V 0 H 0 Z"
         transform="translate(-101.8765,-1470.7517)"
         id="path1350" />
    </clipPath>
  </defs>
  <g
     inkscape:label="Layer 1"
     inkscape:groupmode="layer"
     id="layer1">
    <g
       id="path1349"
       clip-path="url(#clipPath1350)"
       transform="matrix(-0.35277776,0,0,0.35277776,7.6203634,24.528717)">
      <path
         style="color:#000000;fill:url(#linearGradient2);stroke-miterlimit:10;-inkscape-stroke:none"
         d="m 0,0 -16.217,5.989 c -0.397,0.146 -0.844,0.146 -1.241,0 L -33.674,0 c -0.531,-0.196 -0.903,-0.628 -0.975,-1.131 l -7.687,-53.534 c -0.122,-0.848 0.627,-1.599 1.595,-1.599 h 23.904 23.903 c 0.969,0 1.717,0.751 1.596,1.599 L 0.975,-1.131 C 0.902,-0.628 0.531,-0.196 0,0"
         id="path2" />
      <path
         style="color:#000000;fill:#4d3608;stroke-miterlimit:10;-inkscape-stroke:none"
         d="m -40.740234,-57.115234 c -1.407158,0 -2.637958,1.167583 -2.4375,2.570312 l 7.6875,53.5351564 c 0.12054,0.84210769 0.730714,1.51475552 1.521484,1.8066406 l 16.216797,5.9902344 c 0.591076,0.2173731 1.237049,0.2173731 1.828125,0 L 0.29492188,0.796875 C 1.0860176,0.50486982 1.6945279,-0.16997398 1.8164062,-1.0097656 L 9.5039063,-54.544922 C 9.704054,-55.947611 8.4747902,-57.115234 7.0664062,-57.115234 H -16.837891 Z m 0,1.701172 h 23.902343 23.9042972 c 0.5296141,0 0.7957583,0.335596 0.7539063,0.628906 l -7.6875,53.5312498 C 0.108691,-1.0876989 -0.02401861,-0.89686942 -0.29492188,-0.796875 L -16.511719,5.1914062 c -0.202585,0.07396 -0.450026,0.074404 -0.652343,0 L -33.378906,-0.796875 c -0.271229,-0.10011453 -0.404275,-0.2911868 -0.427735,-0.4550781 l -7.6875,-53.5332029 c -0.04206,-0.292363 0.225746,-0.628907 0.753907,-0.628906 z"
         id="path3" />
    </g>
    <path
       style="fill:#ff0000;stroke-width:0.35424"
       d="m 13.974154,20.606244 q -0.557607,0.198438 -2.656832,0.859898 l -0.295203,-0.826824 q 2.52563,-0.595314 3.017636,-0.826825 1.213615,-0.463022 1.64002,-0.926044 0.328004,-0.330729 0.328004,-0.727605 0,-0.463021 -0.426405,-0.694532 -0.557607,-0.297657 -2.263228,-0.297657 -0.885611,0 -1.180815,0.03308 -0.524806,0 -1.213614,0.132291 l -0.0328,-0.826824 q 1.771221,-0.09922 2.197626,-0.09922 1.57442,0 2.42723,0.297657 0.721609,0.264583 0.951212,0.628385 0.295203,0.396876 0.295203,0.793752 0,0.595313 -0.459205,1.157554 -0.459206,0.562241 -1.672821,1.091409 0.0656,0.297656 0.164002,1.058335 0.0656,0.463021 0.0656,1.157554 0,0.562241 -0.0328,0.959116 l -0.885611,0.03307 q 0.0984,-1.190627 0.0984,-1.984379 0,-0.132292 -0.0656,-0.992189 z"
       id="text1350"
       aria-label="と" />
    <path
       style="color:#000000;fill:#ff0000;stroke-width:0.352778;stroke-miterlimit:10;-inkscape-stroke:none"
       d="M 13.785426,6.6802166 V 14.680417 H 13.334807 V 6.6802166 Z"
       id="path1451" />
    <path
       style="color:#000000;fill:#ff0000;stroke-width:0.352778;stroke-miterlimit:10;-inkscape-stroke:none"
       d="m 17.560312,10.454904 v 0.450619 H 9.5601114 v -0.450619 z"
       id="path1453" />
    <path
       style="color:#000000;fill:#ff0000;stroke-width:0.352778;stroke-miterlimit:10;-inkscape-stroke:none"
       d="m 13.71928,10.52105 2.828423,2.828423 -0.318327,0.318327 -2.828423,-2.828423 z"
       id="path1455" />
    <path
       style="color:#000000;fill:#ff0000;stroke-width:0.352778;stroke-miterlimit:10;-inkscape-stroke:none"
       d="m 13.400946,10.521076 0.318327,0.318327 -2.828423,2.828423 -0.318327,-0.318327 z"
       id="path1457" />
  </g>
</svg>
